X: 50
T: Chuanbusi guimeiren siwanle
L: 1/8
M: 2/4
K: G
a A d e/ e/ [I:setbarnb 1]| 
d/ e/A2z | 
a A d e/ e/ | 
a4 | 
a d e g | 
d/ e/A2z | 
ad2e | 
d4 |]

@@@ Tune index: 8924
